X:1
T:Title
%%score { ( 1 3 ) | ( 2 4 ) }
L:1/8
M:4/4
K:C
V:1 treble nm="Grand Piano"
V:3 treble 
V:2 bass 
V:4 bass 
V:1
 z4 z2[Q:1/4=108] [G,EG]2 | [G,EG]2 [A,EA]2 [B,EB]2 [CEc]2 | [DB]4 z4 | %3
 [B,DF]2 [B,GB]2 [G,EG]2 [G,DF]2 |[M:3/4] [G,CE]6 |[M:1/4] [G,EG]2 | %6
[M:4/4] [G,EG]2 [A,EA]2 [B,EB]2 [CEc]2 | d4 z4 | [Gd]2 [EGc]2 [DGB]2 [C^FA]2 |[M:3/4] [B,DG]6 | %10
[M:1/4] [B,FG]2 |[M:4/4] z4 d4 | c6 z2 | [CFA]2 [^CGA]2 [D^Fd]2 [Fe]2 |[M:3/4] [Gd]6 | %15
[M:1/4] [Gd]2 |[M:4/4] [Ge]3 [FB] [Fd]2 [Fc]2 | B4 ABcd | e6 z2 |[M:3/4] [Ec]6 |] %20
V:2
 z4 z2 C,2 | C,2 C,2 C,2 C,2 | z2 z C G,2 G,2 | G,,2 G,,2 A,,2 B,,2 |[M:3/4] C,6 |[M:1/4] C,2 | %6
[M:4/4] C,2 C,2 C,2 A,,2 | [D,B,]4 [D,B,]2 [D,D]2 | [D,B,]2 D,2 D,2 D,2 |[M:3/4] G,6 |[M:1/4] G,2 | %11
[M:4/4] z2 z A, G,2 F,2 | E,3 G, C2 C,2 | F,2 E,2 D,2 [D,^C]2 |[M:3/4] [G,B,]6 |[M:1/4] [G,B,]2 | %16
[M:4/4] [C,C]3 [C,^G,] [C,A,]2 [C,A,]2 | [E,^G,D]4 .[F,A,C]2 z[K:treble] [G,B,G] | %18
 G2- [G,G-]2 [G,G]2 [G,B,F]2 |[M:3/4][K:bass] [C,G,]6 |] %20
V:3
 x8 | x8 | F3- [FA] [B,DG]2 [B,DG]2 | x8 |[M:3/4] x6 |[M:1/4] x2 |[M:4/4] x8 | %7
 G3- [DGB] [DG]2 [GB]2 | x8 |[M:3/4] x6 |[M:1/4] x2 |[M:4/4] [B,Fd]4 F2 G2 | G3 F E2 [CEG]2 | x8 | %14
[M:3/4] x6 |[M:1/4] x2 |[M:4/4] x8 | x8 | z2 C2 B,2 d2 |[M:3/4] x6 |] %20
V:4
 x8 | x8 | G,4 z4 | x8 |[M:3/4] x6 |[M:1/4] x2 |[M:4/4] x8 | x8 | x8 |[M:3/4] x6 |[M:1/4] x2 | %11
[M:4/4] G,,4 G,,4 | C,6 z2 | x8 |[M:3/4] x6 |[M:1/4] x2 |[M:4/4] x8 | x7[K:treble] x | %18
 [G,C]2 z2 z4 |[M:3/4][K:bass] x6 |] %20

